src/icons/file-css.svg

<svg width="16" height="16" viewBox="0 0 16 16" fill="none" xmlns="http://www.w3.org/2000/svg">
<path fill-rule="evenodd" clip-rule="evenodd" d="M2.31725 5.48971L2.82245 11.0469C2.88694 11.7562 2.91918 12.1109 3.05509 12.4148C3.17529 12.6836 3.35335 12.9225 3.57656 13.1145C3.82894 13.3316 4.15958 13.4638 4.82086 13.7283L6.81155 14.5246L6.81156 14.5246C7.2506 14.7002 7.47013 14.788 7.69677 14.8228C7.89775 14.8536 8.10226 14.8536 8.30324 14.8228C8.52988 14.788 8.7494 14.7002 9.18844 14.5246L9.18846 14.5246L11.1791 13.7283C11.8404 13.4638 12.1711 13.3316 12.4235 13.1145C12.6467 12.9225 12.8247 12.6836 12.9449 12.4148C13.0808 12.1109 13.1131 11.7562 13.1776 11.0469L13.6828 5.48972C13.7928 4.27933 13.8478 3.67414 13.6459 3.20686C13.4686 2.79635 13.1588 2.45711 12.766 2.24334C12.319 2 11.7113 2 10.4959 2H5.50411C4.28874 2 3.68105 2 3.23397 2.24334C2.8412 2.45711 2.5314 2.79635 2.35406 3.20686C2.1522 3.67414 2.20722 4.27933 2.31725 5.48971ZM8.00001 12.8459L4.88082 11.5983L4.69007 9.5H6.19626L6.29143 10.547L8.00001 11.2304L9.70858 10.547L9.89466 8.5H7.50001H6.10535H4.59916L4.4628 7H5.96898H6.50001H10.031L10.1674 5.5H6.50001H5.83262H4.32643L4.19007 4H11.8099L11.1192 11.5983L8.00001 12.8459Z" fill="#5BAFD4"/>
</svg>

<svg xmlns="http://www.w3.org/2000/svg" width="16" height="16" fill="none"><path fill="#5BAFD4" fill-rule="evenodd" d="m2.317 5.49.505 5.557c.065.71.097 1.064.233 1.368a2 2 0 0 0 .522.7c.252.217.583.349 1.244.613l1.99.797c.44.175.66.263.886.298.2.03.405.03.606 0 .227-.035.446-.123.885-.298l1.991-.797c.661-.264.992-.396 1.245-.614a2 2 0 0 0 .52-.7c.137-.303.17-.658.234-1.367l.505-5.557c.11-1.21.165-1.816-.037-2.283a2 2 0 0 0-.88-.964C12.319 2 11.711 2 10.496 2H5.504c-1.215 0-1.823 0-2.27.243a2 2 0 0 0-.88.964c-.202.467-.147 1.072-.037 2.283M8 12.846l-3.12-1.248L4.69 9.5h1.506l.095 1.047L8 11.23l1.709-.683.186-2.047H4.599L4.463 7h5.568l.136-1.5H4.326L4.19 4h7.62l-.69 7.598z" clip-rule="evenodd"/></svg>
